src/icons/web3.svg

<svg xmlns="http://www.w3.org/2000/svg" viewBox="0 0 64 64"><path d="M50.2509 42.5342C49.4647 43.8959 49.9312 45.6371 51.2929 46.4233C52.6546 47.2095 54.3959 46.7429 55.182 45.3812C55.9682 44.0195 55.5017 42.2783 54.14 41.4921C52.7783 40.7059 51.037 41.1725 50.2509 42.5342Z"/><path d="M31.9974 5.99963C30.425 5.99963 29.1503 7.27429 29.1503 8.84665C29.1503 10.419 30.425 11.6937 31.9974 11.6937C33.5697 11.6937 34.8444 10.419 34.8444 8.84665C34.8444 7.27429 33.5697 5.99963 31.9974 5.99963Z"/><path d="M27.5745 13.2857L25.5745 9.82162L10.3392 18.6177L9.33915 20.3498L9.33915 37.9024L13.3392 37.9024L13.3392 23.8139L16.8133 25.8197L18.8133 22.3556L15.3392 20.3498L27.5745 13.2857Z"/><path d="M15.7654 39.4072L17.7654 42.8713L30.0565 35.7751L30.0565 44.2721L34.0565 44.2721L34.0565 35.7751L46.2372 42.8076L48.2372 39.3435L36.0565 32.311L43.4152 28.0624L41.4152 24.5983L34.0565 28.8469L34.0565 14.6149L30.0565 14.6149L30.0565 28.8469L22.6978 24.5983L20.6978 28.0624L28.0565 32.311L15.7654 39.4072Z"/><path d="M17.6762 45.6214L15.6762 49.0855L31.0565 57.9654L33.0565 57.9653L48.3248 49.1502L46.3248 45.6861L34.0565 52.7692L34.0565 48.7576L30.0565 48.7576L30.0565 52.7692L17.6762 45.6214Z"/><path d="M54.7739 20.3498L54.7739 37.8783L50.7739 37.8783L50.7739 23.8139L47.2997 25.8197L45.2997 22.3556L48.7739 20.3498L36.4491 13.2341L38.4491 9.76997L53.7739 18.6177L54.7739 20.3498Z"/><path d="M13.7435 42.6876C12.9573 41.3259 11.2161 40.8594 9.85441 41.6455C8.4927 42.4317 8.02614 44.1729 8.81232 45.5346C9.59851 46.8964 11.3397 47.3629 12.7014 46.5767C14.0631 45.7905 14.5297 44.0493 13.7435 42.6876Z"/></svg>

<svg xmlns="http://www.w3.org/2000/svg" viewBox="0 0 64 64"><path d="M50.25 42.534a2.847 2.847 0 1 0 4.932 2.847 2.847 2.847 0 0 0-4.931-2.847M31.997 6a2.847 2.847 0 1 0 0 5.694 2.847 2.847 0 0 0 0-5.694m-4.422 7.286-2-3.464-15.236 8.796-1 1.732v17.552h4V23.814l3.474 2.006 2-3.464-3.474-2.006zm-11.81 26.121 2 3.464 12.292-7.096v8.497h4v-8.497l12.18 7.033 2-3.465-12.18-7.032 7.358-4.249-2-3.464-7.358 4.249V14.615h-4v14.232l-7.36-4.249-2 3.464 7.36 4.249zm1.911 6.214-2 3.465 15.38 8.88h2l15.269-8.816-2-3.464-12.269 7.083v-4.011h-4v4.011zM54.774 20.35v17.528h-4V23.814L47.3 25.82l-2-3.464 3.474-2.006-12.325-7.116 2-3.464 15.325 8.848zm-41.03 22.338a2.847 2.847 0 1 0-4.932 2.847 2.847 2.847 0 0 0 4.932-2.847"/></svg>
